X:1
T:Edelweiss
M:3/4
L:1/4
K:D
|: "D"F2[FA] | "A7"[G3e] | "D"[F2d][FA] | "G"G3 |\
   "D"F2F    |     FGA   | "Em"B3       | "A7"[C3A] |
   "D"F2[FA] | "A7"[G3e] | "D"[F2d][FA] | "G"G3 |\
   "D"F2[FA] | "A7"ABc   | "D"[F3d]-|[F3d] |
  "A7"[Ge] z/A/ A | [Ac]B[FA] | "D"F2[FA] | [F3d] |\
   "G"[G2B][Bd] | "E"e2d | "A"[A3c] | [C3A] |
   "D"F2[FA] | "A7"[G3e] | "D"[F2d][FA] | "G"G3 |\
   "D"F2[FA] | "A7"ABc \
 |1 "D"[F3d] | [F3d] :|2 "D"d[df][fa] | [f3d']-|[fd'] z2 |]
